theme/chrome/browser/symbolic-icons/extensions/xmarks-sync-grayscale.svg

<?xml version="1.0" encoding="UTF-8" standalone="no"?>
<svg xmlns:inkscape="http://www.inkscape.org/namespaces/inkscape" xmlns:rdf="http://www.w3.org/1999/02/22-rdf-syntax-ns#" xmlns="http://www.w3.org/2000/svg" sodipodi:docname="xmarks-sync.svg" height="16px" width="16px" version="1.1" xmlns:cc="http://creativecommons.org/ns#" xmlns:dc="http://purl.org/dc/elements/1.1/" inkscape:version="0.48.3.1 r9886" xmlns:sodipodi="http://sodipodi.sourceforge.net/DTD/sodipodi-0.dtd">
<sodipodi:namedview bordercolor="#666666" inkscape:pageshadow="2" inkscape:window-y="27" pagecolor="#ffffff" inkscape:window-height="712" inkscape:grid-bbox="true" inkscape:window-maximized="1" inkscape:zoom="15.696216" inkscape:window-x="0" showgrid="true" borderopacity="1.0" inkscape:current-layer="layer1" inkscape:cx="7.4833372" inkscape:cy="12.31792" inkscape:window-width="1366" inkscape:pageopacity="0.0" inkscape:document-units="px">
<inkscape:grid type="xygrid"/>
</sodipodi:namedview>
<metadata>
<rdf:RDF>
<cc:Work rdf:about="">
<dc:format>image/svg+xml</dc:format>
<dc:type rdf:resource="http://purl.org/dc/dcmitype/StillImage"/>
<dc:title/>
</cc:Work>
</rdf:RDF>
</metadata>
<g inkscape:label="Layer 1" inkscape:groupmode="layer">
<path d="m3 1c-1.108 0-2 0.892-2 2v9c0 1.108 0.89199 2 2 2h10c1.108 0 2-0.892 2-2v-9c0-1.108-0.892-2-2-2zm0 1 5 5.1563 5-5.1563v3 1l-4 2 3 2v1 1l-4-3-4 3v-1-1l3-2-4-2v-1z" sodipodi:nodetypes="sssssssssccccccccccccccccc" inkscape:connector-curvature="0" fill="#2e3436"/>
</g>
</svg>

<?xml version="1.0" encoding="UTF-8" standalone="no"?>
<!-- Created with Inkscape (http://www.inkscape.org/) -->

<svg
   xmlns:dc="http://purl.org/dc/elements/1.1/"
   xmlns:cc="http://creativecommons.org/ns#"
   xmlns:rdf="http://www.w3.org/1999/02/22-rdf-syntax-ns#"
   xmlns:svg="http://www.w3.org/2000/svg"
   xmlns="http://www.w3.org/2000/svg"
   xmlns:sodipodi="http://sodipodi.sourceforge.net/DTD/sodipodi-0.dtd"
   xmlns:inkscape="http://www.inkscape.org/namespaces/inkscape"
   width="16px"
   height="16px"
   id="svg4238"
   version="1.1"
   inkscape:version="0.48.3.1 r9886"
   sodipodi:docname="xmarks-sync.svg">
  <defs
     id="defs4240" />
  <sodipodi:namedview
     id="base"
     pagecolor="#ffffff"
     bordercolor="#666666"
     borderopacity="1.0"
     inkscape:pageopacity="0.0"
     inkscape:pageshadow="2"
     inkscape:zoom="15.696216"
     inkscape:cx="7.4833372"
     inkscape:cy="12.31792"
     inkscape:current-layer="layer1"
     showgrid="true"
     inkscape:grid-bbox="true"
     inkscape:document-units="px"
     inkscape:window-width="1366"
     inkscape:window-height="712"
     inkscape:window-x="0"
     inkscape:window-y="27"
     inkscape:window-maximized="1">
    <inkscape:grid
       type="xygrid"
       id="grid4253" />
  </sodipodi:namedview>
  <metadata
     id="metadata4243">
    <rdf:RDF>
      <cc:Work
         rdf:about="">
        <dc:format>image/svg+xml</dc:format>
        <dc:type
           rdf:resource="http://purl.org/dc/dcmitype/StillImage" />
        <dc:title></dc:title>
      </cc:Work>
    </rdf:RDF>
  </metadata>
  <g
     id="layer1"
     inkscape:label="Layer 1"
     inkscape:groupmode="layer">
    <path
       style="fill:#2e3436;fill-opacity:1;stroke:none"
       d="M 3,1 C 1.89199,1 1,1.892 1,3 l 0,9 c 0,1.108 0.89199,2 2,2 l 10,0 c 1.10801,0 2,-0.892 2,-2 L 15,3 C 15,1.892 14.10801,1 13,1 z M 3,2 8,7.1563 13,2 l 0,3 0,1 -4,2 3,2 0,1 0,1 L 8,9 4,12 4,11 4,10 7,8 3,6 3,5 z"
       id="rect3011"
       inkscape:connector-curvature="0"
       sodipodi:nodetypes="sssssssssccccccccccccccccc" />
  </g>
</svg>
